packages/sources/assets/src/assets/mb-multibanco.svg

<svg width="58" height="40" viewBox="0 0 58 40" fill="none" xmlns="http://www.w3.org/2000/svg">
<rect x="0.5" y="0.5" width="57" height="39" rx="3.5" fill="white" stroke="#F3F3F3"/>
<path fill-rule="evenodd" clip-rule="evenodd" d="M21.5474 4H38.5929C39.7918 4 40.7715 5.03671 40.7715 6.30575V7.40164C40.7715 8.96 38.6608 8.95342 38.6608 7.40164V6.81644C38.6608 6.43236 38.3501 6.12066 37.966 6.11945H20.8833C20.4997 6.12186 20.1897 6.43285 20.1885 6.81644V7.40384C20.1885 8.95342 18.1786 8.93808 18.1786 7.4389V6.30575C18.1786 5.03671 19.1583 4 20.3551 4H21.5474ZM29.3633 29.7008H40.4186C42.9435 29.7008 42.9677 27.0181 42.7112 25.6921C42.5709 24.8022 41.0586 24.8153 40.892 25.6921V26.7266C40.8896 27.2001 40.5064 27.5834 40.0329 27.5858H18.8362C18.3621 27.5845 17.9782 27.2006 17.977 26.7266V25.6921C17.8104 24.8153 16.2981 24.8022 16.1578 25.6921C15.8992 27.0181 15.9255 29.7008 18.4504 29.7008H29.3633Z" fill="#1866AC"/>
<path fill-rule="evenodd" clip-rule="evenodd" d="M36.1972 15.8203H37.9507V15.8006C38.7679 15.6734 39.3711 14.9706 39.3731 14.1436C39.3707 13.2186 38.6214 12.4693 37.6964 12.4669H34.1567V21.234H38.6586C39.6134 21.2304 40.3865 20.4573 40.3901 19.5025C40.3877 18.5472 39.6139 17.7734 38.6586 17.771H37.966H36.2126C35.6761 17.7686 35.2418 17.3343 35.2394 16.7979C35.2418 16.2614 35.6761 15.8271 36.2126 15.8247L36.1972 15.8203ZM40.3419 16.6817C41.5363 17.2151 42.314 18.3918 42.3364 19.6998C42.3364 21.5562 40.7167 23.0729 38.7353 23.0729H33.1835C32.682 23.0878 32.2614 22.6974 32.2389 22.1962V11.6274C32.2413 11.1156 32.6563 10.7015 33.1682 10.7003H37.7907C39.7419 10.7051 41.3232 12.2844 41.3304 14.2357C41.33 15.1482 40.9757 16.0251 40.3419 16.6817Z" fill="#373536"/>
<path d="M22.251 32.9643C22.251 32.7997 22.3844 32.6662 22.549 32.6662C22.7137 32.6662 22.8471 32.7997 22.8471 32.9643V34.5687C22.8471 35.3059 22.2495 35.9035 21.5123 35.9035C21.1576 35.9047 20.8169 35.7646 20.5657 35.5141C20.3144 35.2637 20.1732 34.9235 20.1732 34.5687V32.9599C20.1732 32.7953 20.3066 32.6619 20.4712 32.6619C20.6359 32.6619 20.7693 32.7953 20.7693 32.9599V34.5687C20.7717 34.9781 21.103 35.3093 21.5123 35.3117C21.9205 35.3081 22.2498 34.9769 22.251 34.5687V32.9643Z" fill="#373536"/>
<path d="M25.0652 35.3161C25.2298 35.3161 25.3633 35.4496 25.3633 35.6142C25.3633 35.7788 25.2298 35.9123 25.0652 35.9123H24.2433C23.9462 35.9131 23.6611 35.7947 23.4521 35.5835C23.2427 35.3742 23.1245 35.0906 23.1233 34.7945V32.9665C23.1233 32.8019 23.2567 32.6685 23.4214 32.6685C23.586 32.6685 23.7195 32.8019 23.7195 32.9665V34.7879C23.7218 35.0774 23.956 35.3116 24.2455 35.3139H25.0674L25.0652 35.3161Z" fill="#373536"/>
<path d="M31.3578 22.0186C31.4232 22.6305 30.9801 23.1795 30.3682 23.2449C29.7563 23.3102 29.2073 22.8672 29.1419 22.2553L28.2301 13.8542L24.9951 22.0756V22.0975V22.115V22.1325V22.1479V22.1654C24.939 22.2749 24.8649 22.3742 24.7759 22.4591L24.7584 22.4745C24.7001 22.5278 24.6353 22.5735 24.5655 22.6104L24.5458 22.6213H24.526H24.5129H24.4997H24.4866H24.4734H24.4581H24.4449C24.3399 22.6586 24.2297 22.6793 24.1184 22.6827H24.0373C23.912 22.6782 23.7883 22.653 23.6712 22.6082H23.6559H23.6405H23.6252H23.6121H23.5989H23.5792L23.5616 22.5972H23.5507C23.4903 22.5628 23.4331 22.5232 23.3797 22.4789L23.3425 22.446L23.3162 22.4197C23.3072 22.4096 23.2977 22.4001 23.2877 22.3912L23.2548 22.3539C23.209 22.3016 23.1693 22.2443 23.1364 22.183V22.1654V22.1457V22.1325V22.1194V22.1062V22.0909V22.0756L19.68 13.8542L18.766 22.2553C18.6885 22.8558 18.1454 23.2843 17.5434 23.2199C16.9414 23.1555 16.5011 22.6219 16.5523 22.0186L17.6285 12.1161C17.642 12.0001 17.6662 11.8857 17.7008 11.7742C17.735 11.6624 17.7805 11.5545 17.8367 11.452C18.1159 10.9273 18.6307 10.5691 19.2197 10.4898H19.2811C19.3716 10.4733 19.4632 10.4631 19.5551 10.4591C19.6687 10.4648 19.7816 10.4802 19.8926 10.5052C20.4825 10.6413 20.9668 11.0607 21.1858 11.6252L23.954 18.6279L26.709 11.6317C26.9284 11.0667 27.4136 10.6472 28.0044 10.5117C28.1152 10.4845 28.2281 10.4669 28.3419 10.4591C28.4353 10.4526 28.5291 10.4526 28.6225 10.4591H28.6838C29.2805 10.5404 29.8 10.9078 30.0756 11.4432C30.1307 11.549 30.1754 11.6599 30.2093 11.7742C30.2441 11.8864 30.2683 12.0016 30.2816 12.1183L31.3578 22.0186Z" fill="#373536"/>
<path d="M20.0614 35.5792C20.0772 35.6865 20.0335 35.794 19.9472 35.8598C19.8608 35.9255 19.7456 35.9392 19.6463 35.8954C19.547 35.8517 19.4793 35.7574 19.4696 35.6493L19.2154 33.5057L18.3058 35.6142C18.2588 35.7238 18.151 35.7949 18.0318 35.7949C17.9126 35.7949 17.8048 35.7238 17.7578 35.6142L16.8482 33.5057L16.594 35.6493C16.5843 35.7574 16.5166 35.8517 16.4173 35.8954C16.318 35.9392 16.2028 35.9255 16.1165 35.8598C16.0301 35.794 15.9864 35.6865 16.0022 35.5792L16.3003 33.0893C16.3186 32.9307 16.4159 32.7921 16.5589 32.7211L16.6181 32.6948H16.64C16.6689 32.6872 16.6982 32.6814 16.7277 32.6772C16.8788 32.6563 17.0315 32.7037 17.1441 32.8066C17.1663 32.8284 17.1868 32.8519 17.2055 32.8767L17.2406 32.9337L17.2559 32.9666L18.0274 34.7551L18.7989 32.9666C18.8633 32.8221 18.9928 32.717 19.1474 32.6838C19.1762 32.6769 19.2056 32.6733 19.2351 32.6729H19.3359C19.4891 32.6909 19.6256 32.7782 19.7063 32.9096C19.7221 32.9368 19.7353 32.9654 19.7458 32.9951C19.7522 33.0137 19.7573 33.0327 19.7611 33.052C19.7632 33.0651 19.7632 33.0784 19.7611 33.0915L20.0614 35.5792Z" fill="#373536"/>
<path d="M26.3649 35.6142C26.3649 35.7788 26.2315 35.9123 26.0668 35.9123C25.9022 35.9123 25.7687 35.7788 25.7687 35.6142V33.2536H24.9227C24.7581 33.2536 24.6246 33.1202 24.6246 32.9556C24.6246 32.7909 24.7581 32.6575 24.9227 32.6575H27.2131C27.3778 32.6575 27.5112 32.7909 27.5112 32.9556C27.5112 33.1202 27.3778 33.2536 27.2131 33.2536H26.3649V35.6142Z" fill="#373536"/>
<path d="M28.2214 35.6142C28.231 35.7264 28.1766 35.8345 28.0807 35.8935C27.9849 35.9526 27.8639 35.9526 27.768 35.8935C27.6721 35.8345 27.6177 35.7264 27.6274 35.6142V32.9644C27.6177 32.8522 27.6721 32.7441 27.768 32.685C27.8639 32.626 27.9849 32.626 28.0807 32.685C28.1766 32.7441 28.231 32.8522 28.2214 32.9644V35.6142Z" fill="#373536"/>
<path d="M34.3299 35.577C34.3498 35.7404 34.2335 35.8891 34.0701 35.909C33.9067 35.929 33.758 35.8127 33.7381 35.6493L33.6329 34.8098H32.6027C32.4381 34.8098 32.3047 34.6764 32.3047 34.5118C32.3047 34.3471 32.4381 34.2137 32.6027 34.2137H33.5605L33.532 33.9945C33.532 33.9945 33.532 33.9814 33.532 33.9748C33.5243 33.9228 33.5126 33.8715 33.497 33.8214C33.482 33.7678 33.4622 33.7157 33.4378 33.6657C33.3316 33.4265 33.0967 33.2702 32.8351 33.2646C32.7842 33.2648 32.7334 33.2707 32.6838 33.2822C32.6382 33.2938 32.594 33.3107 32.5523 33.3326C32.3139 33.47 32.1582 33.7158 32.1359 33.9901L31.9518 35.6449C31.9264 35.8017 31.7825 35.9111 31.6246 35.8935C31.4667 35.876 31.3503 35.7377 31.36 35.5792L31.5463 33.9244C31.5877 33.4493 31.863 33.026 32.2805 32.7956C32.3653 32.7543 32.4542 32.722 32.5457 32.6992C32.6405 32.6767 32.7377 32.6656 32.8351 32.6663C33.3223 32.6698 33.7633 32.9553 33.966 33.3983C34.0075 33.479 34.0412 33.5634 34.0668 33.6504C34.0915 33.7298 34.1091 33.8112 34.1194 33.8937C34.1205 33.9024 34.1205 33.9112 34.1194 33.92L34.3299 35.577Z" fill="#373536"/>
<path d="M35.2395 35.6142C35.2491 35.7264 35.1947 35.8345 35.0988 35.8936C35.003 35.9526 34.882 35.9526 34.7861 35.8936C34.6902 35.8345 34.6358 35.7264 34.6455 35.6142V33.1529C34.6434 33.1361 34.6434 33.1192 34.6455 33.1025C34.6483 33.0695 34.6557 33.037 34.6674 33.006C34.6744 32.9877 34.6832 32.97 34.6937 32.9534C34.7435 32.8612 34.8266 32.7915 34.926 32.7584L34.9655 32.7474H34.9984H35.0795C35.2031 32.7511 35.3184 32.8108 35.3929 32.9096L36.9775 34.9282V32.9797C36.9775 32.8151 37.111 32.6816 37.2756 32.6816C37.4402 32.6816 37.5737 32.8151 37.5737 32.9797V35.4301C37.5737 35.5569 37.5165 35.6768 37.4181 35.7567C37.3988 35.7723 37.3783 35.7862 37.3567 35.7984L37.3216 35.8159H37.2975C37.1928 35.8532 37.0775 35.8469 36.9775 35.7984C36.9643 35.7935 36.9517 35.7869 36.9403 35.7786C36.9195 35.7655 36.8998 35.7508 36.8811 35.7348L36.8438 35.6953L36.8329 35.6844L35.2482 33.6636L35.2395 35.6142Z" fill="#373536"/>
<path d="M39.8904 35.3161C40.0551 35.3161 40.1885 35.4496 40.1885 35.6142C40.1885 35.7788 40.0551 35.9123 39.8904 35.9123H39.0137C38.3658 35.9123 37.8401 35.3877 37.8389 34.7397V33.8433C37.8401 33.1961 38.3644 32.6719 39.0115 32.6707H39.8882C40.0529 32.6707 40.1863 32.8041 40.1863 32.9687C40.1863 33.1334 40.0529 33.2668 39.8882 33.2668H39.0115C38.6921 33.2692 38.4341 33.5282 38.4329 33.8476V34.7441C38.4341 35.0644 38.6934 35.3237 39.0137 35.3249H39.8904V35.3161Z" fill="#373536"/>
<path fill-rule="evenodd" clip-rule="evenodd" d="M42.5885 33.0564C42.3262 32.8049 41.9765 32.6651 41.6132 32.6663L41.611 32.6707C41.2483 32.6696 40.8993 32.8095 40.6378 33.0608C40.3755 33.3086 40.2265 33.6533 40.2258 34.0142V34.5687C40.2259 34.9293 40.3741 35.274 40.6356 35.5222C40.8989 35.7736 41.2492 35.9134 41.6132 35.9123C41.9765 35.9135 42.3262 35.7736 42.5885 35.5222C42.8509 35.2744 42.9999 34.9296 43.0006 34.5687V34.0098C42.9999 33.6489 42.8509 33.3042 42.5885 33.0564ZM41.0499 33.4794C41.2026 33.3369 41.4043 33.2584 41.6132 33.2602V33.2537C41.825 33.2554 42.0278 33.3395 42.1786 33.4882C42.3204 33.6263 42.3996 33.8163 42.3978 34.0142V34.5687C42.3996 34.7666 42.3204 34.9567 42.1786 35.0948C42.0259 35.2373 41.8243 35.3157 41.6154 35.3139C41.4057 35.3161 41.2033 35.2376 41.0499 35.0948C40.9058 34.9573 40.8229 34.7678 40.8197 34.5687V34.0054C40.8229 33.8063 40.9058 33.6168 41.0499 33.4794Z" fill="#373536"/>
<path fill-rule="evenodd" clip-rule="evenodd" d="M28.4712 32.9775V34.2707L28.4625 34.2685V35.612C28.4625 35.6911 28.4939 35.7669 28.5498 35.8228C28.6057 35.8787 28.6815 35.9101 28.7605 35.9101H30.2181C30.7514 35.9089 31.1834 35.4769 31.1847 34.9435C31.1832 34.6986 31.0883 34.4634 30.9194 34.286L30.9019 34.2663C30.8506 34.2151 30.7941 34.1696 30.7331 34.1304C30.8283 33.978 30.8778 33.8015 30.8756 33.6219C30.8744 33.0983 30.4502 32.6741 29.9266 32.6729H28.7605C28.6875 32.6756 28.618 32.7052 28.5655 32.7561C28.5353 32.7853 28.5114 32.8204 28.4953 32.8592C28.4791 32.8965 28.4709 32.9368 28.4712 32.9775ZM29.0674 35.3074V33.2537V33.2493H29.9266C30.0204 33.2502 30.1102 33.288 30.1764 33.3545C30.2439 33.421 30.2818 33.5118 30.2816 33.6066C30.2817 33.7006 30.2438 33.7907 30.1764 33.8564C30.1179 33.916 30.0404 33.9533 29.9573 33.9616H29.8214C29.6567 33.9616 29.5233 34.0951 29.5233 34.2597C29.5233 34.4243 29.6567 34.5578 29.8214 34.5578H30.2181C30.3171 34.5588 30.4116 34.599 30.4811 34.6696L30.4921 34.6805C30.5558 34.7491 30.5917 34.839 30.5929 34.9326C30.5918 35.0316 30.5516 35.1261 30.4811 35.1956C30.4119 35.2665 30.3172 35.3068 30.2181 35.3074H29.0674Z" fill="#373536"/>
</svg>

<svg width="58" height="40" fill="none" xmlns="http://www.w3.org/2000/svg"><rect x=".5" y=".5" width="57" height="39" rx="3.5" fill="#fff" stroke="#F3F3F3"/><path fill-rule="evenodd" clip-rule="evenodd" d="M21.547 4h17.046c1.199 0 2.178 1.037 2.178 2.306v1.096c0 1.558-2.11 1.551-2.11 0v-.586a.697.697 0 0 0-.695-.697H20.883a.7.7 0 0 0-.694.697v.588c0 1.55-2.01 1.534-2.01.035V6.306c0-1.27.98-2.306 2.176-2.306h1.192Zm7.816 25.7H40.42c2.525 0 2.549-2.682 2.292-4.008-.14-.89-1.652-.877-1.819 0v1.035a.864.864 0 0 1-.86.859H18.837a.861.861 0 0 1-.859-.86v-1.034c-.167-.877-1.679-.89-1.82 0-.258 1.326-.232 4.009 2.293 4.009h10.913Z" fill="#1866AC"/><path fill-rule="evenodd" clip-rule="evenodd" d="M36.197 15.82h1.754v-.02a1.681 1.681 0 0 0 1.422-1.656 1.681 1.681 0 0 0-1.677-1.677h-3.54v8.767h4.503a1.738 1.738 0 0 0 1.731-1.732 1.736 1.736 0 0 0-1.731-1.731h-2.446a.978.978 0 0 1-.974-.973.978.978 0 0 1 .974-.973l-.016-.005Zm4.145.862a3.369 3.369 0 0 1 1.994 3.018c0 1.856-1.62 3.373-3.6 3.373h-5.552a.918.918 0 0 1-.945-.877V11.627a.932.932 0 0 1 .93-.927h4.622a3.548 3.548 0 0 1 3.54 3.536 3.523 3.523 0 0 1-.99 2.446Z" fill="#373536"/><path d="M22.251 32.964a.298.298 0 1 1 .596 0v1.605c0 .737-.598 1.334-1.335 1.334a1.334 1.334 0 0 1-1.339-1.334v-1.61a.298.298 0 1 1 .596 0v1.61c.003.41.334.74.743.743a.745.745 0 0 0 .739-.743v-1.605Zm2.814 2.352a.298.298 0 0 1 0 .596h-.822a1.122 1.122 0 0 1-1.12-1.118v-1.827a.298.298 0 1 1 .596 0v1.82a.53.53 0 0 0 .526.527h.822l-.002.002Zm6.293-13.297a1.114 1.114 0 1 1-2.216.236l-.912-8.4-3.235 8.22v.09c-.056.11-.13.21-.22.294l-.017.015a.93.93 0 0 1-.192.136l-.02.011h-.101a1.073 1.073 0 0 1-.327.062h-.08a1.139 1.139 0 0 1-.367-.075h-.092l-.017-.01h-.011a1.191 1.191 0 0 1-.171-.12l-.037-.032-.027-.026a.348.348 0 0 0-.028-.029l-.033-.037a.919.919 0 0 1-.119-.171v-.107l-3.456-8.222-.914 8.401a1.113 1.113 0 0 1-2.214-.236l1.076-9.903a1.89 1.89 0 0 1 .209-.664 1.844 1.844 0 0 1 1.383-.962h.061c.09-.017.182-.027.274-.03a1.828 1.828 0 0 1 1.63 1.166l2.769 7.002 2.755-6.996c.22-.565.705-.985 1.295-1.12a2.021 2.021 0 0 1 .618-.053h.062a1.846 1.846 0 0 1 1.525 1.315c.035.112.06.228.073.344l1.076 9.9ZM20.061 35.58a.298.298 0 1 1-.591.07l-.255-2.144-.91 2.108a.298.298 0 0 1-.547 0l-.91-2.108-.254 2.143a.298.298 0 1 1-.592-.07l.298-2.49a.471.471 0 0 1 .259-.368l.06-.026h.021a.513.513 0 0 1 .566.182l.035.057.015.033.771 1.788.772-1.788a.496.496 0 0 1 .436-.294h.1c.154.018.29.105.371.237a.506.506 0 0 1 .055.142.125.125 0 0 1 0 .04l.3 2.487Zm6.304.034a.298.298 0 1 1-.596 0v-2.36h-.846a.298.298 0 1 1 0-.596h2.29a.298.298 0 1 1 0 .596h-.848v2.36Zm1.856 0a.298.298 0 1 1-.594 0v-2.65a.298.298 0 1 1 .594 0v2.65Zm6.109-.037a.298.298 0 0 1-.592.072l-.105-.84h-1.03a.298.298 0 1 1 0-.595h.957l-.028-.22v-.02a1.017 1.017 0 0 0-.035-.153.92.92 0 0 0-.06-.155.675.675 0 0 0-.602-.401.602.602 0 0 0-.283.068.837.837 0 0 0-.416.657l-.184 1.655a.298.298 0 0 1-.592-.066l.186-1.655a1.43 1.43 0 0 1 .735-1.128 1.216 1.216 0 0 1 .555-.13c.486.004.927.29 1.13.732.041.081.075.165.1.252.026.08.043.161.053.244a.105.105 0 0 1 0 .026l.21 1.657Zm.91.037a.298.298 0 1 1-.595 0v-2.461a.36.36 0 0 1 .022-.147.297.297 0 0 1 .027-.053.412.412 0 0 1 .232-.195l.04-.01h.114a.408.408 0 0 1 .313.162l1.584 2.018V32.98a.298.298 0 0 1 .597 0v2.45a.42.42 0 0 1-.217.368l-.035.018h-.025a.415.415 0 0 1-.416-.081l-.037-.04-.011-.01-1.585-2.021-.008 1.95Zm4.65-.298a.298.298 0 1 1 0 .596h-.876a1.175 1.175 0 0 1-1.175-1.172v-.897a1.175 1.175 0 0 1 1.172-1.172h.877a.298.298 0 1 1 0 .596h-.877a.583.583 0 0 0-.578.58v.897c.001.32.26.58.58.58h.877v-.008Z" fill="#373536"/><path fill-rule="evenodd" clip-rule="evenodd" d="M42.589 33.056a1.403 1.403 0 0 0-.976-.39l-.002.005a1.398 1.398 0 0 0-.973.39 1.315 1.315 0 0 0-.412.953v.555c0 .36.148.705.41.953.263.252.613.391.977.39.364.002.713-.138.976-.39a1.32 1.32 0 0 0 .412-.953v-.56a1.318 1.318 0 0 0-.412-.953Zm-1.54.423a.815.815 0 0 1 .564-.219v-.006a.815.815 0 0 1 .566.234.725.725 0 0 1 .219.526v.555a.725.725 0 0 1-.22.526.815.815 0 0 1-.563.219.817.817 0 0 1-.565-.22.744.744 0 0 1-.23-.525v-.564a.743.743 0 0 1 .23-.526Zm-12.578-.502v1.294l-.009-.002v1.343a.298.298 0 0 0 .299.298h1.457a.969.969 0 0 0 .967-.966.962.962 0 0 0-.266-.658l-.017-.02a1.017 1.017 0 0 0-.169-.136.938.938 0 0 0 .143-.508.951.951 0 0 0-.95-.95h-1.165a.296.296 0 0 0-.266.187.292.292 0 0 0-.024.118Zm.596 2.33V33.25h.86a.357.357 0 0 1 .355.358.348.348 0 0 1-.106.25.357.357 0 0 1-.219.105h-.136a.298.298 0 1 0 0 .596h.397a.374.374 0 0 1 .263.112l.011.01c.064.07.1.159.1.253a.375.375 0 0 1-.11.263.37.37 0 0 1-.264.111h-1.15Z" fill="#373536"/></svg>
